X:1
T:The Telling Takes Me Home
M:4/4
L:1/8
K:G
 DC B,C D2 DD| E2 CD E3 E| E2 ^CD E E3| FF FE F3 G| G2 GG GG GG| FE DE F3 F|\
 E2 CD EE EE| D8| z8| D6 B,A,| G,8|
